X:94
%%vocalfont Baskerville10Pro 11
%%pagewidth 7in
%%staffscale 0.9
T:The Oxfordshire tragedy
M:3/4
L:1/8
K:C
%%%%score 1 2
V:1 clef-treble
V:2 clef-bass octave=-1
V:1
G [DGB]G|[CGc]2[CE]2[A,F][B,D]|C3c BA&x4[D^F]2|[DGd]2[B,G]2[EA][D^F]|[B,G]3||
w:Near Wood-stock town, in Ox-ford-shire, As I walk'd forth to take the air.
V:2
zF2|E2A2DG|(E2C) zC2|B,2E2CD|(G2G,)||
V:1
[B,G] [CGc][FBd]|[Ece]2[GBd]2[Ec]E|[CG]3[CE] [CF][EG]|[FA]2[CG]2[A,F][=B,D]|C3||
w:To view the fields and mead-ows round, Me-thought I heard a dread-ful sound.
V:2
=F ED|C2G,2A,2|E,3_B A[GB]|[FA]2E2DG|C3||

%%%%vocalfont Baskerville10Pro 14
%%%%pagewidth 6.6in
%%%%staffscale 1.0
